!!!OTL: 108. Schlaf, Kindchen, schlaf! Dein Vater ist ein Schaf.
!!!OPR: Reime von boesen Ammen oder Kindermaedchen.
!!!ARE: Europa, Mitteleuropa, Deutschland, Hessen, Alsfeld
!!!SCT: K0108
!!!TXL: @@DE
!!!YEM: Copyright 1995, estate of Helmut Schaffrath.
**kern	**text
*clegG2	*
*M4/4	*
*met(c|)	*
*k[b-]	*
*F:	*
=1	=1
{2a	Schlaf,
4g	Kind-
4g	-chen,
=2	=2
2f	ſchlaf!
4r}	.
{8gL	Dein
8aJ	.
=3	=3
4b-	Va-
4b-	-ter
4a	iſt
4cc	ein
=4	=4
2g	Schaf,
4r}	.
{8fL	dein
8aJ	.
=5	=5
4cc	Mut-
4cc	-ter
4ff	iſt
4dd	ein'
=6	=6
4dd	Läm-
4cc	-mer-
2cc}	-lies
=7	=7
{4.a	ach
8g	wie
4b-	iſt
4g	der
=8	=8
4f	Schlaf
4e	ſo
2f}	ſüß!
==	==
!!!AGN: Kinder -, Wiegen - Lied
!!!ONB: ESAC (Essen Associative Code) Database: KINDER
!!!AMT: simple quadruple
!!!AIN: vox
!!!EED: Helmut Schaffrath
!!!EEV: 1.0
!!!GTL: I. Wiegenlieder.
!!Aus Alsfeld (Hessen): Erk III. 17.
!!!URL-scan: https://archive.org/details/DeutschesKinderliedUndKinderspiel/page/27/mode/1up
!!!ENC: Anna Maria Matuszewska
!!!EEV: 2024/29/08
*-	*-
